X: 6126
T: Captain Kelly
R: reel
M: 4/4
K: Gmajor
||b~g3 g2 bg|eg dg eg dg|b~g3 g2 bg|egfa ~g3z|
b~g3 g2 bg|eg dg eg de|gzga gfed|egfa ~g3z||

